docs/assets/images/calc-svg/chamfer-05.svg

<svg width="76" height="44" viewBox="0 0 76 44" fill="none" xmlns="http://www.w3.org/2000/svg">
<path d="M74.8889 25.2083L33.7639 43L1.68056 35.125L1 12.9583L45.5278 1L62.1528 3.42219L74.8889 18.0139V25.2083Z" fill="#D2D2D2"/>
<path d="M33.7639 43L74.8889 25.2083V18.0139M33.7639 43L1.68056 35.125L1 12.9583M33.7639 43V34.7361M1 12.9583L45.5278 1L62.1528 3.42219M1 12.9583L19.0833 16.4462M19.0833 16.4462L33.7639 34.7361M19.0833 16.4462L62.1528 3.42219M33.7639 34.7361L74.8889 18.0139M74.8889 18.0139L62.1528 3.42219" stroke="#838383"/>
</svg>

<svg width="76" height="44" fill="none" xmlns="http://www.w3.org/2000/svg"><path d="M74.889 25.208L33.764 43 1.68 35.125 1 12.958 45.528 1l16.625 2.422 12.736 14.592v7.194z" fill="#D2D2D2"/><path d="M33.764 43l41.125-17.792v-7.194M33.764 43L1.68 35.125 1 12.958M33.764 43v-8.264M1 12.958L45.528 1l16.625 2.422M1 12.958l18.083 3.488m0 0l14.68 18.29m-14.68-18.29l43.07-13.024m-28.39 31.314L74.89 18.014m0 0L62.153 3.422" stroke="#838383"/></svg>
